packages/webapp/public/images/template-logos/pagerduty.svg

<svg width="62" height="62" viewBox="0 0 62 62" fill="none" xmlns="http://www.w3.org/2000/svg">
<path d="M13.609 49.7115H9V26.5771C9 24.2018 9.97488 22.7656 10.7903 21.9681C12.5984 20.1943 15.0527 20.1421 15.4529 20.1421H22.7032C25.2917 20.1421 26.7801 21.1871 27.5962 22.0671C29.2091 23.8223 29.2269 26.091 29.1912 26.694V35.4163C29.1912 37.9339 28.1627 39.423 27.3122 40.2205C25.5571 41.8691 23.2354 41.9049 22.6854 41.887H13.609V49.7115ZM22.8627 37.2663C23.1102 37.2663 23.8026 37.1955 24.1745 36.8401C24.4584 36.574 24.6007 36.0955 24.6007 35.3963V26.4451C24.6007 26.1976 24.5478 25.541 24.1931 25.1684C23.8493 24.8136 23.2003 24.7421 22.7039 24.7421H15.4164C13.6083 24.7421 13.6083 26.1068 13.6083 26.5681V37.2588L22.8627 37.2663ZM48.391 12.2881H53V35.441C53 37.8163 52.0251 39.2525 51.2097 40.05C49.4016 41.8238 46.9472 41.876 46.5471 41.876H39.2968C36.7083 41.876 35.2199 40.831 34.4038 39.951C32.7909 38.1958 32.7731 35.9271 32.8088 35.3241V26.6135C32.8088 24.0959 33.8373 22.6068 34.6877 21.8093C36.4429 20.1606 38.7646 20.1249 39.3146 20.1428H48.391V12.2881ZM39.1372 24.7435C38.8897 24.7435 38.1974 24.8143 37.8255 25.1698C37.5416 25.4358 37.3992 25.9143 37.3992 26.6135V35.5648C37.3992 35.8123 37.4522 36.4688 37.8069 36.8415C38.1507 37.1962 38.7997 37.2677 39.2961 37.2677H46.5822C48.4082 37.2498 48.4082 35.8927 48.4082 35.4238V24.7435H39.1372Z" fill="#25C151"/>
</svg>

<svg xmlns="http://www.w3.org/2000/svg" width="62" height="62" fill="none"><path d="M13.609 49.712H9V26.577c0-2.375.975-3.812 1.79-4.609 1.808-1.774 4.262-1.826 4.663-1.826h7.25c2.589 0 4.077 1.045 4.893 1.925 1.613 1.755 1.631 4.024 1.595 4.627v8.722c0 2.518-1.028 4.007-1.879 4.804-1.755 1.649-4.077 1.684-4.627 1.666h-9.076v7.825zm9.254-12.445c.247 0 .94-.071 1.312-.426.284-.266.426-.745.426-1.444v-8.951c0-.247-.053-.904-.408-1.277-.344-.355-.993-.426-1.489-.426h-7.288c-1.808 0-1.808 1.365-1.808 1.826v10.691l9.255.008zm25.528-24.978H53v23.153c0 2.375-.975 3.811-1.79 4.609-1.808 1.774-4.263 1.826-4.663 1.826h-7.25c-2.588 0-4.077-1.045-4.893-1.925-1.613-1.755-1.631-4.024-1.595-4.627v-8.711c0-2.518 1.029-4.007 1.879-4.804 1.755-1.649 4.077-1.684 4.627-1.666h9.076v-7.855zm-9.254 12.455c-.248 0-.94.071-1.312.426-.284.266-.426.745-.426 1.444v8.951c0 .248.053.904.408 1.277.344.355.993.426 1.489.426h7.286c1.826-.018 1.826-1.375 1.826-1.844v-10.68h-9.271z" fill="#25c151"/></svg>
